icon-themes/breeze_svg/cmd/32/insertobject.svg

<svg viewBox="0 0 32 32" xmlns="http://www.w3.org/2000/svg"><path d="m6 4v24h20v-1h-19v-22h11v7h7v5h1v-6l-7-7h-1zm5 14c-.554 0-1 .446-1 1v6c0 .554.446 1 1 1h6c.554 0 1-.446 1-1v-1h2v1c0 .554.446 1 1 1h6c.554 0 1-.446 1-1v-6c0-.554-.446-1-1-1h-6c-.554 0-1 .446-1 1v1h-2v-1c0-.554-.446-1-1-1zm0 1h6v1c-.554 0-1 .446-1 1v2c0 .554.446 1 1 1v1h-6zm10 0h6v6h-6v-1c.554 0 1-.446 1-1v-2c0-.554-.446-1-1-1zm-4 2h4v2h-4z" fill="#4d4d4d"/></svg>

<svg xmlns="http://www.w3.org/2000/svg" viewBox="0 0 32 32">
 <path 
     style="fill:#4d4d4d" 
     d="M 6 4 L 6 28 L 26 28 L 26 27 L 7 27 L 7 5 L 18 5 L 18 12 L 25 12 L 25 17 L 26 17 L 26 11 L 19 4 L 18 4 L 6 4 z M 11 18 C 10.446 18 10 18.446 10 19 L 10 25 C 10 25.554 10.446 26 11 26 L 17 26 C 17.554 26 18 25.554 18 25 L 18 24 L 20 24 L 20 25 C 20 25.554 20.446 26 21 26 L 27 26 C 27.554 26 28 25.554 28 25 L 28 19 C 28 18.446 27.554 18 27 18 L 21 18 C 20.446 18 20 18.446 20 19 L 20 20 L 18 20 L 18 19 C 18 18.446 17.554 18 17 18 L 11 18 z M 11 19 L 17 19 L 17 20 C 16.446 20 16 20.446 16 21 L 16 23 C 16 23.554 16.446 24 17 24 L 17 25 L 11 25 L 11 19 z M 21 19 L 27 19 L 27 25 L 21 25 L 21 24 C 21.554 24 22 23.554 22 23 L 22 21 C 22 20.446 21.554 20 21 20 L 21 19 z M 17 21 L 21 21 L 21 23 L 17 23 L 17 21 z "
     />
</svg>
